X:1
T:The Well-Tempered Clavier Book I - IX
T:BWV 854    (A = 415 Hz)
T:J. S. Bach
%%score { ( 1 2 ) | ( 3 4 ) }
L:1/8
M:12/8
K:E
V:1 treble 
V:2 treble 
V:3 bass 
V:4 bass 
V:1
"^Praeludium" EGB ede d/4c/4d/4c/4Bc e3 | c/4B/4c/4B/4AB e3 ABc BcA | GBe g3- gfe dec | %3
 c/4d/4e/4d/4e/4d/4e/4d/4d- d3- def gce | F^Ac fef GBd e3 | F^Ac ede FAc =d3- | %6
 de=d cdB- B/4^A/4B/4A/4GF =gf^e | ed=d c/^d/e^A B6- | Bdf bab c^eg b3- | bga- afg- g^ef e/f/gc | %10
 =d6- d3- ddc | c3- cBA GAB- BAG | A3- ABG A3- AB/A/G/F/ | %13
 G/F/E/F/G/A/ B/A/G/A/B/c/ =d/c/B/A/G/F/ E z2 | Ace aga g/4f/4g/4f/4ef a3 | %15
 f/4e/4f/4e/4=de a3 def efd | cAB c3- cBA GAF | GEF G3- GAB cFA | B,DF BAB CEG A3 | %19
 B,DF AGA B,DF =G3- | GA=G FGE DCB, =cB^A | AG=G F/^G/AD E6- | E6- E3- E2 ^D | [G,B,E]12 | %24
[M:4/4] z8 |"^Fuga" z8 | z2 z B c2 z/ F/G/^A/ | B/^A/B/c/ d/e/f/d/ B/=A/B/c/ B/A/B/c/ | %28
 A/G/A/B/ A/G/A/B/ G/F/G/^A/ B2- | B2 ^A2 Bbdf | B4- BAGe | f2 z/ B/c/d/ e/d/e/f/ g/a/b/g/ | %32
 e/d/e/f/ e/d/e/f/ d/c/d/e/ f/g/a- | ad g2- gf/e/ d2 | e/d/e/f/ e/d/e/f/ d/c/d/e/ f2- | %35
 fe/d/ e2- e-edc | ^BG c2- cd G^A/B/ | c/^B/c/d/ e/f/g/e/ c/=B/c/d/ c/B/c/d/ | %38
 B/^A/B/c/ d/e/f/d/ B/=A/B/c/ B/A/B/c/ | A/G/A/B/ c/d/e/c/ d/c/d/e/ f/g/a/f/ | %40
 g/f/e/d/ c/B/A/G/ F/G/A/F/ DG | EGcB e/d/c/B/ A2- | ADAG c/B/A/G/ F2- | %43
 FE/D/ E/F/G/E/ C/G/F/E/ D z | z/ B,/C/D/ E/F/G/E/ c2 z/ F/G/^A/ | %45
 B/^A/B/c/ d/e/f/g/ =A/G/A/B/ A/G/A/B/ | G/F/G/A/ B/c/=d- dc/B/ c2- | c2 B2 z2 B2- | B2 A2 z2 A2- | %49
 A2 Ge f2 z/ B/c/d/ | e/d/e/f/ g/a/b/g/ a/g/a/b/ a/g/a/b/ | g/f/g/a/ g/f/e/d/ c/B/c/=d/ c/B/c/d/ | %52
 B/c/d/B/ e4 d2 | !fermata!e8 |] %54
V:2
 z3[I:staff +1] G,3 A,3- A,G,F, | G,3- G,A,G, F,6 | E,[I:staff -1] z z2 z2 z z[I:staff +1] C F3 | %3
[I:staff -1] z6 x2[I:staff +1] A, E3- | E3 D6- DCB, | ^A,6- A,3 B,3- | B,C=D E6- E^DC | %7
 B,3 B,^A,E[I:staff -1] D6 | z6 z[I:staff +1] G,B, =DB,C- | C3 B,3 ^B,3 C3 | %10
[I:staff -1] z BG ^EGF GBA B3- | BAG F3- F3 ^E3 | F3- F2 E D3 z2 z | x12 | %14
 z3[I:staff +1] C3 =D3- DCB, | C3- C=DC B,6 |[I:staff -1] z6 z z[I:staff +1] F, B,3 | %17
[I:staff -1] z6 z z[I:staff +1] E, A,3- | A,3 G,6- G,F,E, | D,6- D,3 E,3 | E,F,=G, A,6- A,^G,F, | %21
 E,3- E,D,A, G,E,G, A,G,A, |[I:staff -1] z G,B, =DCD C3- C2 C | x12 |[M:4/4] x8 | %25
 z2 z E F2 z/ B,/C/D/ | E/D/E/F/ G/A/B/G/ E/D/E/F/ E/D/E/F/ | D/C/D/E/ F/G/=A/F/ GB, E2 | %28
 ED F2- FB,ED | C4 B, z z2 | z eGB E F2[I:staff +1] E | %31
 E2 D[I:staff -1]F[I:staff +1] B,2[I:staff -1] z B | c2 z/ F/G/^A/ B/A/B/c/ d/e/f/d/ | %33
 B/A/B/c/ B/A/B/c/ A/G/A/B/ A/G/A/B/ | GE A4- A/^B/c/d/ | G3 c F4- | F2 EA DF ^B,D | %37
[I:staff +1] G,[I:staff -1] z z2 z2[I:staff +1] ^A,2- | A,2 G,2[I:staff -1] z2[I:staff +1] G,2- | %39
 G,2 F,2[I:staff -1] z2[I:staff +1] F,2- | F,2 E,C D2[I:staff -1] z/[I:staff +1] G,/^A,/^B,/ | %41
[I:staff -1] C/[I:staff +1]^B,/C/D/ E/F/G/E/ C/=B,/C/D/ C/B,/C/D/ | %42
 B,/G,/A,/B,/ C/D/E/C/ A,/G,/A,/B,/ A,/G,/A,/B,/ | %43
 G,/F,/G,/A,/ G,B,- B,A,/G,/ A,/[I:staff -1]C/B,/A,/ | G, z z2 z4 | %45
 z2 z[I:staff +1] E[I:staff -1] F2 z/ B,/C/D/ | E/D/E/F/ G/A/B/G/ E/D/E/F/ E/D/E/F/ | %47
 D/C/D/E/ F/G/A/F/ =D/C/D/E/ D/C/D/E/ | C/B,/C/D/ E/F/G/E/ C/B,/C/D/ C/B,/C/D/ | %49
 B,/A,/B,/[I:staff +1]C/ B,/A,/B,/C/ A,/G,/A,/B,/ A,/G,/A,/B,/ | G,B,E,G,- G,F,- F,2- | %51
 F,2 E,2 E,[I:staff -1]E A2- | A2 G/E/F/G/ A/B/c- c/c/B/A/ | G8 |] %54
V:3
 E,12- | E,6- E,3 D,3 | E,G,B, EDE ^A,6 | B,,D,F, B,^A,B, E,6 | F,12- | F,3- F,2 C, =D,3- D,E,F, | %6
 =G,6 F,3- F,^G,^A, | B,2 ^E, F,3 B,,D,F, B,=A,B, | G,3- G,F,G, ^E,6 | F,3 =D,3 ^D,3 C,3 | %10
 B,,6 B,G,F, G,/A,/B,=E, | F,3 A,,3 B,,3 C,3 | F,,A,,C, F,E,F, B,,D,F, B,A,B, | %13
 E,G,B, E=DC B,2 A, G,/D/C/B,/A,/G,/ | A,12- | A,6- A,3 G,3 | A,,C,E, A,G,A, D,6 | %17
 E,,G,,B,, E,D,E, A,,6 | B,,12- | B,,3- B,,2 F,, =G,,3- G,,A,,B,, | =C,4- C,2 B,,3- B,,^C,D, | %21
 E,2 ^A,, B,,3 C,6 | E,6 A,,C,E, A,G,A, | E,,12 |[M:4/4] z8 | z8 | z8 | z z2 z4 E, | %28
 F,2 z/ B,,/C,/D,/ E,/D,/E,/F,/ G,/A,/B,/G,/ | %29
 E,/D,/E,/F,/ E,/D,/E,/F,/ D,/C,/D,/E,/ F,/G,/A,/F,/ | %30
 G,/F,/G,/A,/ B,/C/=D/B,/ C/B,/C/^D/ E/D/C/B,/ | A,/G,/A,/B,/ A,/G,/A,/B,/ G,F,E,D, | %32
 C,B,^A,F, B, z z2 | z4 z2 z B, | C2 z/ F,/G,/A,/ B,/A,/B,/C/ D/E/D/C/ | %35
 ^B,/G,/^A,/B,/ C/D/E/C/ =A,/G,/A,/=B,/ A,/G,/A,/B,/ | %36
 G,/E,/F,/G,/ A,/B,/C/A,/ F,/E,/F,/G,/ F,/E,/F,/G,/ | E,D,C,E, ^A,,G,^^F,D, | %38
 G,,^A,,B,,A,, G,,F,^E,C, | F,,G,,A,,G,, F,,E,D,C, | ^B,,G,,A,,E, F,/E,/F, G,G,, | C, z z2 z4 | %42
 z8 | z2 z E, F,2 z/ B,,/C,/D,/ | E,/D,/E,/F,/ G,/A,/B,/G,/ E,/D,/E,/F,/ E,/D,/E,/F,/ | %45
 D,F,B,,E,- E,D,/C,/ D,B, | C2 z G, A,G,A,E, | F,A,G,F, E,F,G,E, | A,B,CB, A,E,F,C, | %49
 D,B,, E,4 D,2- | D,2 C,2 F,,>C, D,B,, | E,B,,C,G,, A,,>E,, F,,C,, | D,,B, C2 z/ F,/G,/A,/ B,B,, | %53
 !fermata!E,,8 |] %54
V:4
 x12 | x12 | x12 | x12 | x12 | x12 | x12 | x12 | x12 | x12 | z =D,^E, G,B,A, z2 z4 | x12 | x12 | %13
 x12 | x12 | x12 | x12 | x12 | x12 | x12 | x12 | x12 | G,,6 A,,6 | x12 |[M:4/4] x8 | x8 | x8 | x8 | %28
 x8 | x8 | x8 | x8 | x8 | x8 | x8 | x8 | x8 | x8 | x8 | x8 | x8 | x8 | x8 | x8 | x8 | x8 | x8 | %47
 x8 | x8 | x8 | x8 | x8 | x8 | x8 |] %54

